svgs/sharp-solid/square-1.svg

<svg xmlns="http://www.w3.org/2000/svg" viewBox="0 0 448 512"><!--! Font Awesome Pro 6.6.0 by @fontawesome - https://fontawesome.com License - https://fontawesome.com/license (Commercial License) Copyright 2024 Fonticons, Inc. --><path d="M0 32l448 0 0 448L0 480 0 32zM144 336l0 48 24 0 56 0 56 0 24 0 0-48-24 0-32 0 0-184 0-24-24 0-8 0-6.2 0-5.4 3L144 164.5l0 54.9 11.7-6.5L200 188.3 200 336l-32 0-24 0z"/></svg>

<svg xmlns="http://www.w3.org/2000/svg" viewBox="0 0 448 512"><!--! Font Awesome Pro 6.4.0 by @fontawesome - https://fontawesome.com License - https://fontawesome.com/license (Commercial License) Copyright 2023 Fonticons, Inc. --><path d="M0 32H448V480H0V32zM144 336v48h24 56 56 24V336H280 248V152 128H224h-8-6.2l-5.4 3L144 164.5v54.9l11.7-6.5L200 188.3V336H168 144z"/></svg>
